uploads/2019/01/11/values_06.svg

<svg height="60" viewBox="0 0 60 60" width="60" xmlns="http://www.w3.org/2000/svg"><g fill="#04de47" fill-rule="evenodd" transform="translate(6 8)"><path d="m7 24c-1.30824052-.0150405-2.51880502-.6951304-3.2122-1.8046-.43480589-.6565009-.69904371-1.4110635-.7688-2.1954h7.962c-.0698163.7843543-.3341234 1.5389182-.769 2.1954-.69335679 1.1094103-1.90383084 1.7894917-3.212 1.8046z" opacity=".15"/><path d="m41 24c-1.3082405-.0150405-2.518805-.6951304-3.2122-1.8046-.4348059-.6565009-.6990437-1.4110635-.7688-2.1954h7.9622c-.0698163.7843543-.3341234 1.5389182-.769 2.1954-.693395 1.1094696-1.9039595 1.7895595-3.2122 1.8046z" opacity=".15"/><path d="m30 40c.5522847 0 1-.4477153 1-1s-.4477153-1-1-1h-12c-.5522847 0-1 .4477153-1 1s.4477153 1 1 1z"/><path d="m36 42h-24c-.5522847 0-1 .4477153-1 1s.4477153 1 1 1h24c.5522847 0 1-.4477153 1-1s-.4477153-1-1-1z"/><path d="m46.456 16.8964-4.61-10.8964h2.154c.5522847 0 1-.44771525 1-1s-.4477153-1-1-1h-19v-3c0-.55228475-.4477153-1-1-1s-1 .44771525-1 1v3h-19c-.55228475 0-1 .44771525-1 1s.44771525 1 1 1h2.154l-4.61 10.8964c-.89153259 1.9281835-.77153701 4.1725356.32050825 5.994666 1.09204527 1.8221304 3.01472985 2.9860889 5.13549175 3.108934 2.1207619-.1228451 4.0434465-1.2868036 5.1354917-3.108934 1.0920453-1.8221304 1.2120409-4.0664825.3205083-5.994666l-4.61-10.8964h15.154v29c0 .5522847.4477153 1 1 1s1-.4477153 1-1v-29h15.154l-4.61 10.8964c-.8915326 1.9281835-.771537 4.1725356.3205083 5.994666 1.0920452 1.8221304 3.0147298 2.9860889 5.1354917 3.108934 2.1207619-.1228451 4.0434465-1.2868036 5.1354917-3.108934 1.0920453-1.8221304 1.2120409-4.0664825.3205083-5.994666zm-39.456 7.1036c-1.30824052-.0150405-2.51880502-.6951304-3.2122-1.8046-.43480589-.6565009-.69904371-1.4110635-.7688-2.1954h7.962c-.0698163.7843543-.3341234 1.5389182-.769 2.1954-.69335679 1.1094103-1.90383084 1.7894917-3.212 1.8046zm3.7066-6h-7.4132c.0368-.1074.048-.2188.0926-.3242l3.614-8.5424 3.614 8.5424c.0446.1054.0558.2168.0926.3242zm30.2934-8.8666 3.614 8.5424c.0446.1054.0558.2168.0926.3242h-7.4132c.0368-.1074.048-.2188.0926-.3242zm0 14.8666c-1.3082405-.0150405-2.518805-.6951304-3.2122-1.8046-.4348059-.6565009-.6990437-1.4110635-.7688-2.1954h7.9622c-.0698163.7843543-.3341234 1.5389182-.769 2.1954-.693395 1.1094696-1.9039595 1.7895595-3.2122 1.8046z" fill-rule="nonzero"/></g></svg>

<?xml version="1.0" encoding="UTF-8"?>
<svg width="60px" height="60px" viewBox="0 0 60 60" version="1.1" xmlns="http://www.w3.org/2000/svg" xmlns:xlink="http://www.w3.org/1999/xlink">
    <!-- Generator: Sketch 52.4 (67378) - http://www.bohemiancoding.com/sketch -->
    <title>assets/homepage/values_05</title>
    <desc>Created with Sketch.</desc>
    <g id="Page-1" stroke="none" stroke-width="1" fill="none" fill-rule="evenodd">
        <g id="Wunder-Careers-04-Cultures-Mobile" transform="translate(-158.000000, -1566.000000)" fill="#04DE47">
            <g id="Wunder-Values" transform="translate(20.000000, 668.000000)">
                <g id="Ownership" transform="translate(0.000000, 843.000000)">
                    <g transform="translate(93.000000, 55.000000)" id="Group-27">
                        <g transform="translate(45.000000, 0.000000)">
                            <g id="finance-policy" transform="translate(6.000000, 8.000000)">
                                <path d="M7,24 C5.69175948,23.9849595 4.48119498,23.3048696 3.7878,22.1954 C3.35299411,21.5388991 3.08875629,20.7843365 3.019,20 L10.981,20 C10.9111837,20.7843543 10.6468766,21.5389182 10.212,22.1954 C9.51864321,23.3048103 8.30816916,23.9848917 7,24 Z" id="Path" opacity="0.149999991"></path>
                                <path d="M41,24 C39.6917595,23.9849595 38.481195,23.3048696 37.7878,22.1954 C37.3529941,21.5388991 37.0887563,20.7843365 37.019,20 L44.9812,20 C44.9113837,20.7843543 44.6470766,21.5389182 44.2122,22.1954 C43.518805,23.3048696 42.3082405,23.9849595 41,24 Z" id="Path" opacity="0.149999991"></path>
                                <path d="M30,40 C30.5522847,40 31,39.5522847 31,39 C31,38.4477153 30.5522847,38 30,38 L18,38 C17.4477153,38 17,38.4477153 17,39 C17,39.5522847 17.4477153,40 18,40 L30,40 Z" id="Path"></path>
                                <path d="M36,42 L12,42 C11.4477153,42 11,42.4477153 11,43 C11,43.5522847 11.4477153,44 12,44 L36,44 C36.5522847,44 37,43.5522847 37,43 C37,42.4477153 36.5522847,42 36,42 Z" id="Path"></path>
                                <path d="M46.456,16.8964 L41.846,6 L44,6 C44.5522847,6 45,5.55228475 45,5 C45,4.44771525 44.5522847,4 44,4 L25,4 L25,1 C25,0.44771525 24.5522847,0 24,0 C23.4477153,0 23,0.44771525 23,1 L23,4 L4,4 C3.44771525,4 3,4.44771525 3,5 C3,5.55228475 3.44771525,6 4,6 L6.154,6 L1.544,16.8964 C0.652467412,18.8245835 0.772462985,21.0689356 1.86450825,22.891066 C2.95655352,24.7131964 4.8792381,25.8771549 7,26 C9.1207619,25.8771549 11.0434465,24.7131964 12.1354917,22.891066 C13.227537,21.0689356 13.3475326,18.8245835 12.456,16.8964 L7.846,6 L23,6 L23,35 C23,35.5522847 23.4477153,36 24,36 C24.5522847,36 25,35.5522847 25,35 L25,6 L40.154,6 L35.544,16.8964 C34.6524674,18.8245835 34.772463,21.0689356 35.8645083,22.891066 C36.9565535,24.7131964 38.8792381,25.8771549 41,26 C43.1207619,25.8771549 45.0434465,24.7131964 46.1354917,22.891066 C47.227537,21.0689356 47.3475326,18.8245835 46.456,16.8964 Z M7,24 C5.69175948,23.9849595 4.48119498,23.3048696 3.7878,22.1954 C3.35299411,21.5388991 3.08875629,20.7843365 3.019,20 L10.981,20 C10.9111837,20.7843543 10.6468766,21.5389182 10.212,22.1954 C9.51864321,23.3048103 8.30816916,23.9848917 7,24 Z M10.7066,18 L3.2934,18 C3.3302,17.8926 3.3414,17.7812 3.386,17.6758 L7,9.1334 L10.614,17.6758 C10.6586,17.7812 10.6698,17.8926 10.7066,18 Z M41,9.1334 L44.614,17.6758 C44.6586,17.7812 44.6698,17.8926 44.7066,18 L37.2934,18 C37.3302,17.8926 37.3414,17.7812 37.386,17.6758 L41,9.1334 Z M41,24 C39.6917595,23.9849595 38.481195,23.3048696 37.7878,22.1954 C37.3529941,21.5388991 37.0887563,20.7843365 37.019,20 L44.9812,20 C44.9113837,20.7843543 44.6470766,21.5389182 44.2122,22.1954 C43.518805,23.3048696 42.3082405,23.9849595 41,24 Z" id="Shape" fill-rule="nonzero"></path>
                            </g>
                        </g>
                    </g>
                </g>
            </g>
        </g>
    </g>
</svg>
